X:151
T:Brother trip Foot
M:2/4
L:1/8
B:Thompson's Compleat Collection of 200 Favourite Country Dances, vol. 1 (London, 1757)
Z:Transcribed and edited by Flynn Titford-Mock, 2007
Z:abc's:AK/Fiddler's Companion
K:F
c|AFcF|BcdB|AFcF|defd|ecgc|GABG|Af (e/f/g/e/)|f3:|
|:f|ecgc|fgaf|bgaf|defd|ecdB|GABG|AF (3EFG|F3:|

